!!!OTL: ALS ICH AUF MEINER BLEICHE
!!!ARE: Europa, Mitteleuropa, Deutschland
!!!SCT: F0014
!!!YEM: Copyright 1995, estate of Helmut Schaffrath.
**kern
*ICvox
*Ivox
*M4/4
*k[f#c#g#]
*A:
{4e
=1
4a
4cc#
4cc#
4b
=2
4b
4a
4a}
{4a
=3
4.b
8cc#
8dd
8b
8a
8g#
=4
4a
2r}
{4e
=5
4a
4cc#
4cc#
4b
=6
4b
4a
4a}
{4a
=7
4.b
8cc#
8dd
8b
8a
8g#
=8
4a
2r}
{4cc#
=9
4b
4ee
4dd#
4cc#
=10
4cc#
4b
4b}
{4a
=11
4.g#
8cc#
8b
8a
8g#
8f#
=12
4e
2r}
{4ee
=13
4ee
4dd#
4dd#
4dd
=14
4dd
4cc#
4cc#}
{4a
=15
4.b
8cc#
8dd
8b
8a
8g#
=16
4a
2r}
==
!!!AGN: erzaehlendes Volks - Lied, Ballade? Gefangenschaft, Flucht
!!!ONB: ESAC (Essen Associative Code) Database: FINK
!!!AMT: simple quadruple
!!!AIN: vox
!!!EED: Helmut Schaffrath
!!!EEV: 1.0
*-
